X:98
T:Blithe, Blithe and Merry Are We
C:arr. Carlo Minasi
M:2/4
L:1/8
B:Chappell's One Hundred Scotch Melodies
B:Arranged for the Concertina by Carlo Minasi
Q:"Spiritoso  "1/4=140
Z:Peter Dunk 2012
K:G
!mf!L[B2G2E2]E>F|A<A F<D|L[B2G2E2]E>F|A>F E2|\
L[B2G2E2]E>F|A<A (FD)|L[B2G2E2]E>F|(A<F) E H||
F|Dd (d>e)|([dB]>B) ([AF]>d)|([BG]<e) (e>f)|\
([EBG]>d) B>d|([AF]>B) ([dF]>e)|\
([dF]>[BG]) ([AF]>d)|([BG]>d) ([AF]F)|(A>F) [E2^C2A,2]||

